!!!COM: Music21
!!!OTL: reel_Wrangler--The
!!!OMV: reel_Wrangler--The
**kern
*clefG2
*k[f#]
*M4/4
=1
8aL
8aJ
8ddL
8aJ
8ccL
8ddJ
8aL
8eeJ
=
8eeL
8aJ
8ddL
8aJ
8ccL
8ddJ
8aL
8ccJ
=
8eeL
8aJ
8ddL
8aJ
8ccL
8ddJ
8aL
8ccJ
=
8eeL
8aJ
8ddL
8aJ
8ccL
8ddJ
8bL
8aJ
=
16aLL
16aJ
8aJ
8ddL
8aJ
8ccL
8ddJ
8aL
8eeJ
!!linebreak:original
=
8eeL
8aJ
8ddL
8aJ
8ccL
8ddJ
8aL
8ccJ
=
8eeL
8aJ
8ddL
8aJ
8ccL
8ccJ
8ccL
8ddJ
=
8eeL
8aJ
8ddL
8aJ
8ccL
8ddJ
8bL
8aJ
=||
*M4/4
8aL
8aJ
8ddL
8aJ
8ccL
8ddJ
8aL
8eeJ
=
8eeL
8aJ
8ddL
8aJ
8ccL
8ddJ
8aL
8ccJ
!!linebreak:original
=
8eeL
8aJ
8ddL
8aJ
8ccL
8ddJ
8aL
8ccJ
=
8eeL
8aJ
8ddL
8aJ
8ccL
8ddJ
8bL
8aJ
=
16aLL
16aJ
8aJ
8ddL
8aJ
8ccL
8ddJ
8aL
8eeJ
=
8eeL
8aJ
8ddL
8aJ
8ccL
8ddJ
8aL
8ccJ
=
8eeL
8aJ
8ddL
8aJ
8ccL
8ccJ
8ccL
8ddJ
!!linebreak:original
=
8eeL
8aJ
8ddL
8aJ
8ccL
8ddJ
8eeL
8ggJ
=||
4.ffn
8ee
8ddL
8ccJ
8aL
8gJ
=
4.g
8gg
8eeL
8ddJ
8ccL
8ddJ
=
8eeL
8aJ
8ccL
8ddJ
8eeL
8eeJ
8ddL
8ccJ
=
8eeL
8bJ
8bL
8ccJ
8bL
8ccJ
8ddL
8bJ
!!linebreak:original
=
8fnL
8aJ
8ccL
8ddJ
8ddL
8ccJ
8aL
8ccJ
=
8ffnL
8aJ
8ffL
8ffJ
8ddL
8ccJ
8ddL
8ffJ
=
8eeL
8eeJ
8ddL
8ccJ
8eeL
8aJ
8ccL
8ddJ
=
8eeL
8eeJ
8ddL
8ccJ
8eeL
8aJ
8ccL
8ggJ
=||
4.ffn
8ee
8ddL
8ccJ
8aL
8gJ
!!linebreak:original
=
4.g
8gg
8eeL
8ddJ
8ccL
8ddJ
=
8eeL
8aJ
8ccL
8ddJ
8eeL
8eeJ
8ddL
8ccJ
=
8eeL
8bJ
8bL
8ccJ
8bL
8ccJ
8ddL
8bJ
=
8fnL
8aJ
8ccL
8ddJ
8ddL
8ccJ
8aL
8ccJ
=
8ffnL
8aJ
8ffL
8ffJ
8ddL
8ccJ
8ddL
8ffJ
!!linebreak:original
=
8eeL
8eeJ
8ddL
8ccJ
8eeL
8aJ
8ccL
8ddJ
=
8eeL
8ccJ
8ccL
8ddJ
8eeL
8bJ
8ddL
8bJ
=
2.a
4ryy
=||
*-
